X:1
T:O Little Town of Bethlehem
T:O Little Town of Bethlehem
%%score ( 1 2 ) ( 3 4 )
L:1/8
M:4/4
K:F
V:1 treble nm="Piano" snm="Pno."
V:2 treble 
V:3 bass nm="Piano" snm="Pno."
V:4 bass 
V:1
 [CA]2 | [CA]2 [CA]2 [=B,^G]2 [CA]2 | (([_Ec]2 [DB]2)) [B,D]2 [DG]2 | [CF]2 EF [CG]2 C2 | [CA]6 | %5
w: 1~O|lit- tle town of|Beth- le- hem, how|still we _ see thee|lie!|
w: 2~For|Christ is born of|Ma- lent- ry, and|ga- thered _ all a-|bove,|
w: 3~How|si- lent- ly, how|si- le- ly the|won- drous _ gift is|given!|
w: 4~O|ho- ly Child of|Beth- * hem, des-|cend to _ us, we|pray;|
 [CA]2 | [CA]2 [FA]2 [^Fd]2 [Fc]2 | [Gc]2 [DB]2 [B,D]2 [DG]2 | [CF]2 EF [EA]2 [EG]2 | F6 | [FA]2 | %11
w: A-|bove thy deep and|dream- less sleep the|si- lent _ stars go|by.|Yet|
w: while|mor- tals sleep, the|an- gels keep their|watch of _ won- dering|love,|O|
w: So|God im- parts to|hu- man hearts the|bles- sings _ of his|heaven.|No|
w: cast|out our sin, and|en- ter in; be|born in _ us to-|day.|We|
 [FA]2 [FA]2 [EG]2 [DF]2 | [^CE]4 [CE]2 [CE]2 | D2 E2 F2 [DG]2 | [EA]6 | [FA]2 | %16
w: in thy dark streets|shin- eth the|e- ver- las- ting|Light;|the|
w: mor- ning stars, to-|ge- ther pro-|claim the ho- ly|birth,|and|
w: ear may hear his|co- ming, but|in this world of|sin,|where|
w: hear the Christ- mas|an- gels the|great glad ti- dings|tell;|O|
 [CA]2 [CA]2 [=B,^G]2 [CA]2 | [Dc]2 [DB]2 [B,D]2 d2 | [Fc]2 [=B,F]2 [CA]3 [_B,G] | [A,F]6 |] %20
w: hopes and fears of|all the years are|met in thee to-|night.|
w: prai- ses sing to|God the King, and|peace to all on|earth.|
w: meek souls will re-|ceive him still, the|dear Christ en- ters|in.|
w: come to us, a-|bide with us, our|Lord Em- ma- nu-|el.|
V:2
 x2 | x8 | x8 | x2 C2 x2 C2 | x6 | x2 | x8 | x8 | x2 C2 x4 | F6 | x2 | x8 | x8 | D2 E2 F2 x2 | x6 | %15
 x2 | x8 | x6 DE | x8 | x6 |] %20
V:3
 F,2 | F,2 F,2 F,2 F,2 | ([B,,-^F,]2 [B,,G,]2) [B,,G,]2 [B,,B,]2 | [C,A,]2 G,A, [C,B,]2 [C,B,]2 | %4
 [F,A,]6 | F,2 | F,2 [_E,A,]2 [D,A,]2 [D,D]2 | [G,D]2 [G,D]2 [G,,D]2 [B,,B,]2 | %8
 A,2 ^G,A, [C,C]2 [C,B,]2 | [F,A,]6 | [F,C]2 | [F,C]2 [F,A,]2 [G,B,]2 [^G,_B,]2 | %12
 [A,^C]4 [A,C]2 [A,,A,]2 | D,2 E,2 F,2 [B,D]2 | [A,^C]6 | [F,=C]2 | [F,C]2 [F,A,]2 F,2 F,2 | %17
 [B,,^F,]2 [B,,G,]2 [B,,G,]2 [B,,B,]2 | [C,A,]2 G,F, [C,E,]3 [C,E,] | [F,,F,]6 |] %20
V:4
 F,2 | F,2 F,2 F,2 F,2 | x8 | x2 C,2 x4 | x6 | F,2 | F,2 x6 | x8 | C,3 C, x4 | x6 | x2 | x8 | x8 | %13
 D,2 E,2 F,2 x2 | x6 | x2 | x4 F,2 F,2 | x8 | x2 D,2 x4 | x6 |] %20

